X: 15083
T: Wellcome from Vigo
%R: jig
B: James Oswald "The Caledonian Pocket Companion" v.1 b.5 p.8 #3
S: https://ia800501.us.archive.org/18/items/caledonianpocket01rugg/caledonianpocket01rugg_bw.pdf
Z: 2020 John Chambers <jc:trillian.mit.edu>
M: 6/8
L: 1/8
K: G
"_Brisk"D |\
GBd dBG | (G/A/B/c/)d dBG | Bdg dBG | FAd AFD |\
GBd dBG | (G/A/B/c/)d dBG | Bdg dBG | AFD G2 :|
|: f |\
gab bag | (fga) (agf) | gab   egf    | Te2d d2c |\
Bgf edB |  Aag   fed | Te2d (e/f/g)B | TA2G G2 :|


